icon.svg

<svg width="32" height="32" viewBox="0 0 32 32" fill="none" xmlns="http://www.w3.org/2000/svg">
<g id="icons/marques/assurances/ameli">
<g id="Logo">
<path id="Vector" d="M16.476 2.4737C16.4416 2.42414 16.3966 2.38285 16.3443 2.35279C16.292 2.32273 16.2336 2.30466 16.1735 2.29989L15.9739 2.28057C15.8344 2.24195 12.8345 2.2913 12.1306 2.74408C12.0555 2.2677 11.8924 1.6926 11.0706 1.51664C10.4912 1.39432 9.24225 1.94581 9.6607 3.19257C9.69783 3.29528 9.75484 3.38965 9.82849 3.47029C9.90213 3.55093 9.99096 3.61626 10.0899 3.66252C10.1972 3.71832 10.3667 3.69257 10.4933 4.01874C10.5298 4.11531 10.6006 4.10458 10.6628 4.08526C10.7251 4.06595 10.7208 4.07453 10.7959 4.13676C10.8097 4.15042 10.8274 4.15956 10.8465 4.16301C10.8657 4.16646 10.8854 4.16404 10.9032 4.15608C10.9123 4.16473 10.9231 4.17147 10.9349 4.17589C10.9467 4.18031 10.9593 4.18233 10.9718 4.18183C11.0019 4.18183 11.0706 4.16037 11.0877 4.18183C11.3259 4.37281 11.6027 4.07239 11.7079 3.88355L12.092 5.04877C11.9997 4.96937 11.0555 4.69684 10.6027 5.20327C10.2079 5.63245 9.92036 6.23115 9.58774 7.24615C9.54304 7.37619 9.46635 7.49288 9.36473 7.58551C9.2631 7.67813 9.13982 7.7437 9.00621 7.77619C8.4912 7.96503 8.79162 8.20537 8.92252 8.22897C9.32336 8.28593 9.73121 8.26994 10.1264 8.18176C10.3173 8.08734 10.1757 7.64743 10.3882 7.37491L10.8581 6.76762C10.8748 7.08125 10.8175 7.3944 10.6907 7.68177C10.5362 8.05944 10.0663 8.25901 9.92679 8.43927C9.68002 8.75686 10.2465 8.78261 10.3967 8.73111C10.7723 8.60235 11.0405 8.60879 11.1972 8.51652C11.4117 8.39206 11.2594 8.05515 11.3302 7.91782C11.5233 7.53585 12.1886 6.7011 12.2637 6.56805C12.2742 6.55083 12.2835 6.53291 12.2916 6.51441C12.6822 6.63656 13.0906 6.69241 13.4997 6.67964C14.5962 6.54874 14.8409 5.77408 14.7293 5.17752C14.6328 4.78044 14.4422 4.41242 14.1735 4.10458C13.8795 3.63677 13.7164 3.39 13.6199 3.26553C13.9353 3.19043 15.6799 2.70975 15.6864 2.72477C15.7529 2.8664 15.9009 2.89859 15.9524 2.93936C16.0662 3.00159 16.1306 2.90503 16.0855 2.87713C16.0384 2.84979 16.0009 2.80857 15.9782 2.75911C16.1054 2.75778 16.2324 2.76711 16.358 2.787C16.4803 2.80417 16.5619 2.53164 16.476 2.4737Z" fill="#0C419A"/>
<path id="Vector_2" fill-rule="evenodd" clip-rule="evenodd" d="M31.9931 12.9971C31.712 11.495 30.3086 10.5615 29.5854 10.2547C29.3294 10.1418 29.0646 10.05 28.7936 9.97999L28.5533 9.9006C28.6048 9.57442 28.9824 9.54867 29.2099 9.08301C29.8537 7.76115 28.5318 6.82983 27.5533 7.04442C27.0919 7.14742 26.77 7.31266 26.6949 7.66458C26.6563 7.85557 26.5082 7.862 26.2658 8.11522C26.1885 8.19676 26.3602 8.32981 26.3881 8.3856C26.3881 8.40062 26.3451 8.47144 26.328 8.55083C26.3108 8.63023 26.328 8.61736 26.328 8.62808C26.2965 8.68523 26.2802 8.74952 26.2808 8.81478C26.2453 8.88498 26.2268 8.96252 26.2268 9.04117C26.2268 9.11981 26.2453 9.19736 26.2808 9.26756C26.3792 9.41888 26.447 9.58802 26.4803 9.7654C26.4803 9.80618 26.4803 9.82764 26.3001 9.7654C26.255 9.75253 24.4847 9.23108 24.2872 9.09803C24.0898 8.96499 22.313 7.04657 22.1199 6.67318C22.0148 6.45859 21.9053 6.33199 21.8474 6.33628C21.4332 6.36203 22.1478 7.1088 21.7465 6.85344C21.6435 6.78691 21.3345 6.57018 21.3173 6.55301C21.2401 6.49078 21.2594 6.52082 21.2036 6.4307C21.1706 6.3637 21.1246 6.3039 21.0684 6.25473C21.0234 6.22255 20.9955 6.21396 20.9633 6.22255C20.9311 6.23113 20.9096 6.28478 20.8946 6.28907C20.8711 6.28652 20.8473 6.28652 20.8238 6.28907C20.7208 6.31482 20.798 6.57876 20.8238 6.70108C20.9236 6.9794 21.0486 7.24803 21.1972 7.50364C21.6457 7.81265 22.0877 8.0723 22.1027 8.08947C22.5856 8.64954 23.1521 9.35125 23.6585 9.88343C24.0619 10.3126 25.9031 11.3855 25.9653 11.4134C26.0855 11.4864 26.2765 11.8791 26.0018 14.6902C25.8988 15.7481 25.1435 17.997 25.5018 19.1601C25.8968 20.2333 26.1577 21.3512 26.2786 22.4884C26.3387 22.9497 25.9804 23.2287 25.4675 23.5999C25.2679 23.7459 24.7057 24.0935 24.6478 24.145C24.5533 24.2308 24.6478 24.3596 24.7636 24.4197C24.9162 24.4986 25.0748 24.5653 25.2379 24.6192C25.5391 24.6638 25.8465 24.6039 26.1091 24.4497C26.4825 24.2351 26.5168 24.2051 26.7357 24.072C26.9889 23.9197 27.2936 23.8703 27.3795 23.6128C27.4846 23.2695 27.1949 22.7781 27.225 22.5549C27.4396 20.9455 27.7121 20.1494 27.3065 19.1622C27.225 18.9648 27.8945 16.8146 27.9503 17.1043C28.0533 17.6709 28.094 19.3554 28.1134 20.6086C28.1134 21.1558 28.5619 23.0999 28.7035 23.7974C28.9181 24.8703 27.1048 25.7287 27.5039 26.0505C27.666 26.1613 27.8508 26.2346 28.0447 26.2651C28.2369 26.309 28.4379 26.2937 28.6214 26.2213C28.8048 26.1489 28.9621 26.0229 29.0726 25.8596C29.4588 25.3789 29.3408 25.5119 29.6455 25.1686C29.9095 24.8724 29.7206 24.3617 29.6863 24.0956C29.6176 23.5484 29.6756 23.4047 29.6713 22.4218C29.6507 21.791 29.6945 21.1597 29.8022 20.5378C30.0876 18.6537 30.2635 17.6301 30.3515 16.8297V16.7846C30.3515 16.7846 30.4889 16.834 30.5489 16.7352C30.6143 16.6012 30.6516 16.4551 30.6584 16.3061C30.682 16.2009 30.7249 16.3361 30.7249 16.3361C30.7685 16.446 30.7994 16.5604 30.8172 16.6773C30.7872 16.8376 30.7367 16.9934 30.667 17.1408C30.594 17.3554 30.7786 17.3854 30.8258 17.4026C31.0903 17.2729 31.3238 17.0877 31.5103 16.8597C31.5671 16.7023 31.5933 16.5355 31.5876 16.3683C31.5625 16.0073 31.5108 15.6487 31.433 15.2954C31.6047 14.7396 32.0618 13.3726 31.9931 12.9971ZM30.7056 15.1687C30.6455 15.437 30.6283 15.1816 30.3751 16.1752L30.403 16.0335C30.403 15.8941 30.403 15.7546 30.403 15.6044C30.403 14.3726 29.461 11.7418 30.0318 12.3018C30.0318 12.3018 30.7185 12.7804 30.8515 13.1452C30.9631 13.4349 30.9245 14.2224 30.7056 15.1687Z" fill="#0C419A"/>
<path id="Vector_3" d="M7.7488 18.1086C7.53421 17.9241 6.79388 16.9091 6.30891 16.51C6.06421 16.2419 5.84106 15.9548 5.64154 15.6516C4.76387 14.4821 4.56859 14.4156 3.95916 14.3126C3.8347 14.2289 3.87547 14.1323 3.88835 14.128C3.99342 14.1013 4.09162 14.0527 4.17648 13.9852C4.26134 13.9177 4.33092 13.833 4.38061 13.7367C4.4303 13.6404 4.45898 13.5346 4.46475 13.4263C4.47052 13.3181 4.45326 13.2098 4.41409 13.1087C4.37761 12.9564 4.48061 12.8941 4.47847 12.7482C4.47561 12.5503 4.43633 12.3546 4.36259 12.171C4.38688 12.102 4.39313 12.0279 4.38074 11.9558C4.36834 11.8837 4.33772 11.8159 4.29177 11.759C3.8626 11.2182 2.78965 11.1925 2.23816 11.5766C1.79182 11.8856 2.05361 12.1002 1.91413 12.5379C1.87737 12.6583 1.87497 12.7866 1.90719 12.9083C1.93942 13.03 2.005 13.1403 2.09653 13.2268C2.11799 13.3727 2.5579 13.6559 2.47206 13.9649C2.38623 14.2739 1.86263 14.3512 1.87551 14.3512C1.82009 14.3639 1.76667 14.3841 1.71671 14.4113C0.896981 14.8791 0.103003 15.5593 0 16.3082C0.0450636 16.9112 0.978525 17.7803 1.57937 18.2395C1.66735 19.2674 2.3197 20.8404 2.34975 20.9026C2.43773 21.0914 2.1652 20.761 1.50856 20.5378C1.18882 20.4305 0.768227 19.9949 0.6781 20.5056C0.639474 20.7202 0.731748 21.0893 0.530034 21.5485C0.377676 21.8983 0.555785 22.4584 0.942044 22.4476C1.22101 22.4476 1.38624 21.5893 1.38624 21.5893C1.38624 21.5893 2.73601 22.2609 3.37977 22.0378C3.7553 21.9069 3.84114 20.4026 3.4699 19.0614C3.339 18.5915 3.71238 19.8275 4.61366 20.9155C4.81322 21.1558 4.63726 21.3446 4.76816 22.2395C4.805 22.4296 4.82012 22.6232 4.81322 22.8167C4.78747 23.2459 4.37332 23.7631 5.31965 24.0055C6.26599 24.248 6.2059 24.4798 6.81105 24.0742C7.08143 23.8918 5.97844 23.7802 5.76385 23.1279C5.75132 23.0815 5.7427 23.0341 5.7381 22.9862C5.71235 22.4712 5.95269 21.2695 5.87544 20.8661C5.5321 18.8275 4.67589 17.8855 4.56645 17.4091C4.56645 15.9864 4.46344 15.54 4.59864 15.8598C4.78035 16.1895 4.98771 16.5045 5.2188 16.8018C5.25099 16.8426 5.28961 16.8855 5.33038 16.9306C5.40654 17.0217 5.49295 17.1038 5.58789 17.1752C6.1823 17.6945 7.12864 18.3147 7.25524 18.4498C7.25524 18.4498 7.32606 19.0764 7.58356 19.0314C7.84107 18.9863 8.95049 18.4928 8.92904 18.3683C8.88397 18.1365 7.78742 18.143 7.7488 18.1086ZM1.57294 17.319C1.40126 16.9885 0.929169 16.3748 0.963503 16.2739C1.2253 15.8447 1.50641 15.7203 1.5901 15.7482C1.67379 15.7761 1.57294 17.319 1.57294 17.319Z" fill="#0C419A"/>
<path id="Vector_4" d="M26.5619 29.6406C26.5125 29.6149 25.8452 29.3681 25.2551 28.4239C24.9911 27.9947 23.0083 24.3274 22.7379 23.6107C22.2015 22.1923 18.017 19.6408 17.841 19.4927C17.7166 19.3919 17.7316 19.1451 17.7788 18.9842C18.1307 17.791 17.9934 16.7224 18.0599 16.5614C18.2316 16.1559 18.4891 15.5658 18.2981 15.1816L17.8689 14.4992C17.8689 14.4992 20.0813 15.2997 20.5942 15.1924C21.0362 15.098 23.2637 13.5679 23.3838 13.5014C23.6928 13.3448 24.4332 13.5765 25.1821 12.7611C25.4632 12.4542 25.2593 12.3491 25.2078 12.4027C25.1823 12.36 25.1411 12.3289 25.093 12.316C25.0449 12.3032 24.9937 12.3097 24.9503 12.334C24.7722 12.4349 24.1564 12.613 24.2701 12.5293C24.7164 12.1946 24.4074 12.1001 24.4074 12.1001C24.2122 12.2611 23.3238 12.4864 23.1521 12.628C22.9375 12.7933 22.8152 12.9349 22.7229 12.9928C21.968 13.4166 21.1586 13.735 20.3174 13.9392C20.1285 13.9821 18.3625 12.8276 17.341 12.671C16.9945 12.592 16.6332 12.6061 16.2938 12.7117C15.929 12.8147 15.9569 12.2825 16.2273 12.1602C16.3689 12.0937 16.605 12.0508 16.693 11.8705C16.7206 11.7992 16.7333 11.7231 16.7303 11.6467C16.7274 11.5703 16.7088 11.4953 16.6758 11.4263C16.6823 11.4057 16.6843 11.3839 16.6817 11.3625C16.6791 11.341 16.672 11.3204 16.6608 11.3019C16.635 11.2396 16.6393 11.2718 16.6479 11.2096C16.6565 11.1474 16.62 11.1281 16.605 11.0766C16.5973 11.0366 16.6026 10.9953 16.62 10.9585C16.8346 10.7783 16.7423 10.6946 16.7144 10.6688C16.6694 10.613 16.3389 10.4714 16.311 10.2568C16.2725 10.0196 16.2002 9.78908 16.0964 9.57229C16.0749 9.50792 16.0385 9.10878 15.8625 8.94784C15.6479 8.75256 15.1951 8.51866 14.2188 8.77617C13.9055 8.862 13.9634 9.01222 13.178 9.15814C12.2402 9.33195 11.7231 10.7268 11.8068 11.304C11.8754 11.7718 12.2767 11.5444 12.2596 11.7525C12.2338 12.0765 12.1995 12.6109 12.8862 12.8104C13.0342 12.8534 13.9334 12.7096 14.2745 12.7697C14.2745 12.7697 14.5535 12.7933 14.414 13.0722C14.3454 13.2096 13.4441 13.5658 13.2231 13.6602C12.6308 13.9048 11.1179 16.3876 10.6609 16.6215C10.394 16.7491 10.1384 16.8992 9.89694 17.07C9.27463 17.4606 8.66735 17.9284 8.33259 17.9284C7.88624 17.9005 7.52359 18.1151 7.22531 18.7867C7.13733 18.9842 7.18883 19.085 7.34977 19.1258C7.38331 19.1676 7.42531 19.2018 7.47302 19.2262C7.52073 19.2506 7.57307 19.2647 7.62659 19.2674C7.75964 19.3919 7.90985 19.3125 8.02358 19.2524C8.37336 19.0614 8.45276 18.9112 8.59009 18.8554C8.93129 18.7438 10.9506 17.9649 11.3991 17.6172C12.0815 17.2438 13.4548 15.834 13.7595 15.819C14.0385 15.7932 14.7381 16.4112 14.5235 17.6001C14.4484 18.0056 13.9419 18.7374 13.6651 19.1644C13.1072 20.0099 13.5385 20.7481 13.4291 20.9262C12.8518 21.8682 12.1415 23.1279 10.9441 24.2051C10.4785 24.5077 9.49566 24.5763 8.97635 24.7287C7.78324 25.0785 6.51288 25.9347 5.60517 26.4454C5.30474 26.6128 5.01719 26.2523 4.63952 26.2094C4.26184 26.1664 4.22965 26.7372 4.03652 27.2544C3.97644 27.4132 3.95069 27.4883 3.66314 28.1256C3.54941 28.3746 3.25113 29.1428 3.55155 29.4604C3.82623 29.8423 4.47858 28.6449 4.98286 28.0613C5.25109 27.7522 5.41204 27.6514 5.99357 27.5183C6.36266 27.4325 9.28751 26.6385 11.2188 26.2158C11.266 26.2158 11.3175 26.1965 11.3733 26.1815C13.8819 25.5377 16.4827 22.2545 16.5234 22.2695L20.783 24.3811C21.2122 24.6128 21.2122 25.4433 21.7251 26.3875C22.0298 26.9583 22.4783 27.4604 24.3001 29.2436C24.534 29.4732 24.3409 29.8531 24.4482 30.2071C24.5555 30.5612 24.74 30.5934 25.0812 30.5655C25.4224 30.5376 25.6842 30.4882 26.0018 30.4668C26.4074 30.4432 26.298 30.4861 26.7722 30.5569C27.0018 30.5913 27.5275 30.6664 27.8988 30.2973C28.5576 29.632 27.1842 29.9668 26.5619 29.6406Z" fill="#0C419A"/>
<path id="Vector_5" d="M21.9374 27.793C21.9224 27.7624 21.9014 27.7351 21.8757 27.7128C21.85 27.6904 21.82 27.6735 21.7876 27.6629C21.7552 27.6523 21.721 27.6482 21.687 27.6511C21.6531 27.6539 21.62 27.6635 21.5898 27.6793C19.6518 28.6636 17.4992 29.1497 15.3263 29.0939C13.1534 29.0381 11.0286 28.442 9.14367 27.3596C9.11415 27.3398 9.0809 27.3264 9.04597 27.32C9.01104 27.3136 8.97518 27.3145 8.9406 27.3225C8.90602 27.3306 8.87345 27.3456 8.84491 27.3668C8.81638 27.3879 8.79248 27.4146 8.77469 27.4454C8.7569 27.4761 8.7456 27.5101 8.74149 27.5454C8.73738 27.5807 8.74055 27.6164 8.75079 27.6504C8.76104 27.6844 8.77815 27.7159 8.80106 27.743C8.82398 27.7701 8.85221 27.7923 8.88402 27.8081C10.8432 28.9325 13.0513 29.5518 15.3094 29.6103C17.5675 29.6687 19.8047 29.1644 21.8194 28.1428C21.8505 28.128 21.8782 28.107 21.901 28.0813C21.9239 28.0555 21.9413 28.0255 21.9523 27.9928C21.9633 27.9602 21.9677 27.9258 21.9651 27.8914C21.9626 27.8571 21.9531 27.8237 21.9374 27.793Z" fill="#0C419A"/>
<path id="Vector_6" d="M3.51503 10.7482C3.47807 10.7474 3.44163 10.7394 3.40774 10.7246C3.3452 10.6961 3.29653 10.6439 3.27239 10.5796C3.24826 10.5152 3.25063 10.4439 3.27898 10.3813C4.44185 7.81037 6.37803 5.6664 8.81752 4.24836C8.84688 4.22762 8.88022 4.21321 8.91544 4.20604C8.95066 4.19886 8.98698 4.19907 9.02212 4.20666C9.05725 4.21425 9.09042 4.22905 9.11954 4.25012C9.14865 4.2712 9.17308 4.29809 9.19126 4.32909C9.20945 4.3601 9.221 4.39454 9.22518 4.43023C9.22936 4.46593 9.22609 4.50211 9.21557 4.53648C9.20504 4.57085 9.1875 4.60265 9.16405 4.62989C9.14059 4.65713 9.11174 4.6792 9.07932 4.6947C6.73343 6.05997 4.87165 8.12278 3.75322 10.5959C3.73185 10.6411 3.69817 10.6794 3.65604 10.7063C3.61391 10.7333 3.56504 10.7478 3.51503 10.7482Z" fill="#0C419A"/>
<path id="Vector_7" d="M25.682 7.42426C25.6453 7.42429 25.6091 7.41646 25.5758 7.40128C25.5425 7.3861 25.5128 7.36393 25.4888 7.33627C23.4271 5.00343 20.6015 3.48179 17.519 3.0445C17.4852 3.03971 17.4526 3.02831 17.4232 3.01094C17.3938 2.99357 17.3681 2.97058 17.3476 2.94328C17.3271 2.91598 17.3121 2.88491 17.3036 2.85183C17.2951 2.81876 17.2932 2.78433 17.298 2.75051C17.3028 2.7167 17.3142 2.68416 17.3315 2.65475C17.3489 2.62534 17.3719 2.59964 17.3992 2.57911C17.4265 2.55859 17.4576 2.54364 17.4906 2.53513C17.5237 2.52661 17.5582 2.5247 17.592 2.52949C20.7968 2.98412 23.7345 4.56672 25.8772 6.99293C25.9096 7.0305 25.9306 7.07656 25.9376 7.12566C25.9446 7.17476 25.9374 7.22485 25.9169 7.27C25.8964 7.31514 25.8633 7.35346 25.8217 7.38042C25.78 7.40738 25.7316 7.42184 25.682 7.42211V7.42426Z" fill="#0C419A"/>
</g>
</g>
</svg>

<svg width="32" height="32" fill="none" xmlns="http://www.w3.org/2000/svg"><g fill="#0C419A"><path d="M16.476 2.474a.407.407 0 00-.302-.174l-.2-.02c-.14-.038-3.14.011-3.843.464-.075-.476-.239-1.051-1.06-1.227-.58-.123-1.829.429-1.41 1.676a.83.83 0 00.429.47c.107.055.277.03.403.356.037.096.108.086.17.066.062-.02.058-.01.133.052a.096.096 0 00.107.02.094.094 0 00.069.025c.03 0 .099-.022.116 0 .238.19.515-.11.62-.298l.384 1.165c-.092-.08-1.037-.352-1.49.154-.394.43-.682 1.028-1.014 2.043a.82.82 0 01-.582.53c-.515.189-.214.43-.083.453.4.057.808.04 1.203-.047.191-.095.05-.535.262-.807l.47-.607a2 2 0 01-.167.914c-.155.377-.625.577-.764.757-.247.318.32.344.47.292.375-.129.643-.122.8-.214.215-.125.062-.462.133-.6.193-.381.859-1.216.934-1.349a.449.449 0 00.028-.054c.39.123.799.178 1.208.166 1.096-.131 1.34-.906 1.23-1.502a2.546 2.546 0 00-.556-1.073 12.695 12.695 0 00-.554-.84c.315-.075 2.06-.555 2.066-.54.067.141.215.174.266.214.114.063.179-.034.133-.062a.264.264 0 01-.107-.118c.127-.001.254.008.38.028.122.017.204-.255.118-.313z"/><path fill-rule="evenodd" clip-rule="evenodd" d="M31.993 12.997c-.281-1.502-1.684-2.435-2.408-2.742a5.162 5.162 0 00-.791-.275l-.24-.08c.05-.326.428-.351.656-.817.644-1.322-.678-2.253-1.657-2.039-.461.103-.783.269-.858.62-.039.192-.187.198-.43.451-.076.082.095.215.123.27 0 .016-.043.086-.06.166-.017.08 0 .066 0 .077a.38.38 0 00-.047.187.502.502 0 000 .453c.098.15.166.32.2.497 0 .041 0 .063-.18 0-.046-.012-1.816-.534-2.014-.667-.197-.133-1.974-2.051-2.167-2.425-.105-.214-.215-.341-.273-.337-.414.026.3.773-.1.517a10.233 10.233 0 01-.43-.3c-.077-.062-.058-.032-.113-.122a.566.566 0 00-.136-.176c-.045-.032-.073-.041-.105-.032-.032.008-.053.062-.068.066a.329.329 0 00-.071 0c-.103.026-.026.29 0 .412.1.278.225.547.373.803.449.309.89.568.906.585.483.56 1.05 1.262 1.555 1.794.404.43 2.245 1.503 2.307 1.53.12.073.311.466.037 3.277-.103 1.058-.858 3.307-.5 4.47.395 1.073.656 2.191.777 3.328.06.462-.299.74-.811 1.112-.2.146-.762.493-.82.545-.095.086 0 .215.116.275.152.079.31.145.474.2.301.044.608-.016.871-.17.373-.215.408-.245.627-.378.253-.152.558-.202.643-.46.106-.342-.184-.834-.154-1.057.215-1.61.487-2.406.081-3.393-.081-.197.588-2.347.644-2.058.103.567.144 2.251.163 3.505 0 .547.449 2.49.59 3.188.215 1.073-1.598 1.932-1.2 2.253.163.111.348.185.542.215a.978.978 0 001.028-.405c.386-.481.268-.348.572-.691.265-.297.076-.807.041-1.073-.068-.548-.01-.691-.015-1.674-.02-.631.024-1.262.131-1.884.286-1.884.462-2.908.55-3.708v-.045s.137.049.197-.05c.065-.134.103-.28.11-.429.023-.105.066.03.066.03.043.11.074.224.092.341-.03.16-.08.316-.15.464-.073.214.112.244.159.262.264-.13.498-.315.684-.543.057-.158.083-.325.078-.492a7.364 7.364 0 00-.155-1.073c.172-.555.629-1.922.56-2.298zm-1.287 2.172c-.06.268-.078.013-.33 1.006l.027-.142v-.429c0-1.231-.942-3.862-.371-3.302 0 0 .686.478.82.843.111.29.072 1.077-.146 2.024z"/><path d="M7.749 18.109c-.215-.185-.955-1.2-1.44-1.599a6.899 6.899 0 01-.667-.858c-.878-1.17-1.073-1.236-1.683-1.34-.124-.083-.084-.18-.07-.184a.766.766 0 00.525-1.02c-.036-.152.067-.214.064-.36a1.611 1.611 0 00-.115-.577.43.43 0 00-.071-.412c-.43-.54-1.502-.566-2.054-.182-.446.309-.184.523-.324.96a.676.676 0 00.183.69c.021.146.46.429.375.738-.086.309-.61.386-.596.386a.623.623 0 00-.16.06C.898 14.88.104 15.56 0 16.308c.045.603.979 1.472 1.58 1.931.087 1.028.74 2.601.77 2.664.088.188-.185-.142-.841-.365-.32-.108-.74-.543-.83-.032-.04.214.053.583-.149 1.043-.152.35.026.91.412.899.279 0 .444-.859.444-.859s1.35.672 1.994.449c.375-.131.461-1.635.09-2.977-.131-.47.242.767 1.144 1.855.2.24.023.429.154 1.323.037.19.052.384.045.578-.026.429-.44.946.507 1.189.946.242.886.474 1.491.068.27-.182-.833-.294-1.047-.946a.858.858 0 01-.026-.142c-.026-.515.215-1.716.137-2.12-.343-2.038-1.2-2.98-1.309-3.457 0-1.423-.103-1.869.033-1.55.181.33.389.646.62.943.032.04.07.084.111.129.077.09.163.173.258.244.594.52 1.54 1.14 1.667 1.275 0 0 .071.626.329.581.257-.045 1.366-.538 1.345-.663-.045-.231-1.142-.225-1.18-.26zm-6.176-.79c-.172-.33-.644-.944-.61-1.045.262-.43.543-.554.627-.526.084.028-.017 1.571-.017 1.571z"/><path d="M26.562 29.64c-.05-.025-.717-.272-1.307-1.216-.264-.43-2.247-4.097-2.517-4.813-.537-1.419-4.721-3.97-4.897-4.118-.124-.101-.11-.348-.062-.509.352-1.193.214-2.262.28-2.423.173-.405.43-.995.24-1.38l-.43-.682s2.212.8 2.725.693c.442-.094 2.67-1.624 2.79-1.69.309-.157 1.05.074 1.798-.74.281-.308.077-.413.026-.36a.191.191 0 00-.258-.068c-.178.1-.794.279-.68.195.446-.334.137-.429.137-.429-.195.161-1.083.386-1.255.528-.215.165-.337.307-.43.365a9.484 9.484 0 01-2.405.946c-.189.043-1.954-1.111-2.976-1.268a2.016 2.016 0 00-1.047.04c-.365.104-.337-.428-.067-.55.142-.067.378-.11.466-.29a.559.559 0 00-.017-.445.152.152 0 00-.015-.124c-.026-.062-.022-.03-.013-.092.009-.063-.028-.082-.043-.133a.191.191 0 01.015-.118c.215-.18.122-.264.094-.29-.045-.056-.375-.198-.403-.412a2.52 2.52 0 00-.215-.685c-.021-.064-.058-.463-.233-.624-.215-.195-.668-.43-1.644-.172-.313.086-.256.236-1.041.382-.938.174-1.455 1.569-1.371 2.146.068.468.47.24.453.448-.026.324-.06.859.626 1.058.148.043 1.047-.1 1.389-.04 0 0 .278.023.139.302-.069.138-.97.494-1.19.588-.593.245-2.106 2.728-2.563 2.962a5.227 5.227 0 00-.764.448c-.622.39-1.23.858-1.564.858-.447-.027-.81.187-1.108.859-.088.197-.036.298.125.339a.38.38 0 00.277.141c.133.125.283.046.397-.015.35-.19.429-.34.566-.397.341-.111 2.36-.89 2.81-1.238.681-.373 2.055-1.783 2.36-1.798.279-.026.978.592.764 1.781-.076.406-.582 1.137-.859 1.564-.558.846-.126 1.584-.236 1.762-.577.942-1.287 2.202-2.485 3.28-.466.302-1.448.37-1.968.523-1.193.35-2.463 1.206-3.37 1.716-.301.168-.589-.193-.966-.236-.378-.043-.41.528-.603 1.045-.06.16-.086.234-.374.872-.114.249-.412 1.017-.111 1.334.274.382.927-.815 1.43-1.399.27-.309.43-.41 1.012-.543.369-.085 3.294-.88 5.225-1.302.047 0 .099-.02.154-.035 2.509-.643 5.11-3.927 5.15-3.912l4.26 2.112c.43.232.43 1.062.942 2.006.305.571.753 1.073 2.575 2.857.234.23.04.61.148.963.107.354.292.386.633.358.341-.027.603-.077.92-.098.406-.024.297.02.771.09.23.034.756.11 1.127-.26.659-.665-.715-.33-1.337-.656z"/><path d="M21.937 27.793a.255.255 0 00-.347-.114 13.09 13.09 0 01-12.446-.32.26.26 0 10-.26.45 13.617 13.617 0 0012.935.334.257.257 0 00.118-.35zM3.515 10.748a.26.26 0 01-.236-.367 13.556 13.556 0 015.539-6.133.26.26 0 11.261.447 13.05 13.05 0 00-5.326 5.9.266.266 0 01-.238.153zM25.682 7.424a.255.255 0 01-.193-.088 13.09 13.09 0 00-7.97-4.292.26.26 0 11.073-.515 13.603 13.603 0 018.285 4.464.26.26 0 01-.195.43v.001z"/></g></svg>
